X:1
T:Reel de Bergerville
R:reel
M:C|
L:1/8
K:Bm
"Bm"B3B BFBc|dcde f2 d2|B3B BFBc|"F#m"dedc "Bm"B2F2|
"Bm"B3B BFBc|dcde f2 d2|B3B BFBc|"F#m"dedc "Bm"B4:|
|:"D"A2BA F2 (3ABc|dcde f2 d2|"D"A2 BA FDFA|dAFD "A7"E3B|
"D"A2BA F2 (3ABc|dcde f2 d2| A2 BA FAdf| "A7"edce "D"d4:|


